src/icons/times-circle.svg

<svg viewBox="0 0 40 40" fill="none" xmlns="http://www.w3.org/2000/svg">
<path fill="currentColor" opacity="0.44" d="M20 40C31.0457 40 40 31.0457 40 20C40 8.9543 31.0457 0 20 0C8.9543 0 0 8.9543 0 20C0 31.0457 8.9543 40 20 40Z" />
<path fill="currentColor" d="M27.7783 29.1924C27.5907 29.3799 27.3364 29.4853 27.0712 29.4853C26.806 29.4853 26.5516 29.3799 26.3641 29.1924L20.0001 22.8284L13.6361 29.1924C13.4486 29.3799 13.1943 29.4853 12.929 29.4853C12.6638 29.4853 12.4095 29.3799 12.2219 29.1924L10.8077 27.7782C10.6202 27.5906 10.5148 27.3363 10.5148 27.0711C10.5148 26.8059 10.6202 26.5515 10.8077 26.364L17.1717 20L10.8077 13.636C10.6202 13.4485 10.5148 13.1941 10.5148 12.9289C10.5148 12.6637 10.6202 12.4094 10.8077 12.2218L12.2219 10.8076C12.4095 10.6201 12.6638 10.5147 12.929 10.5147C13.1943 10.5147 13.4486 10.6201 13.6361 10.8076L20.0001 17.1716L26.3641 10.8076C26.5516 10.6201 26.806 10.5147 27.0712 10.5147C27.3364 10.5147 27.5907 10.6201 27.7783 10.8076L29.1925 12.2218C29.38 12.4094 29.4854 12.6637 29.4854 12.9289C29.4854 13.1941 29.38 13.4485 29.1925 13.636L22.8285 20L29.1925 26.364C29.38 26.5515 29.4854 26.8059 29.4854 27.0711C29.4854 27.3363 29.38 27.5906 29.1925 27.7782L27.7783 29.1924Z" />
</svg>

<svg viewBox="0 0 40 40" fill="none" xmlns="http://www.w3.org/2000/svg"><path fill="currentColor" opacity=".44" d="M20 40c11.046 0 20-8.954 20-20S31.046 0 20 0 0 8.954 0 20s8.954 20 20 20z"/><path fill="currentColor" d="M27.778 29.192a1 1 0 0 1-1.414 0L20 22.828l-6.364 6.364a1 1 0 0 1-1.414 0l-1.414-1.414a1 1 0 0 1 0-1.414L17.172 20l-6.364-6.364a1 1 0 0 1 0-1.414l1.414-1.414a1 1 0 0 1 1.414 0L20 17.172l6.364-6.364a1 1 0 0 1 1.414 0l1.415 1.414a1 1 0 0 1 0 1.414L22.828 20l6.364 6.364a1 1 0 0 1 0 1.414l-1.414 1.414z"/></svg>
